X: 9692
T: Dearest Dicky
R: jig
M: 6/8
K: Gmajor
|:D|G2 G BAB|cBc def|gfg/f/ edc|BAG FED|
G2G BAB|cBc def|gfg AB^c|d3 d2:|
|:B/c/|dGB cde|cAB cBc|dGB cde|cAB c2 d|
e2 d eaf|g3 gfe|dcB AGF|GAG G2:|

